icons/github.svg

<?xml version="1.0" encoding="utf-8"?>
<!-- Generator: Adobe Illustrator 28.0.0, SVG Export Plug-In . SVG Version: 6.00 Build 0)  -->
<svg version="1.1" id="Layer_1" xmlns="http://www.w3.org/2000/svg" xmlns:xlink="http://www.w3.org/1999/xlink" x="0px" y="0px"
	 viewBox="0 0 97.6 96" style="enable-background:new 0 0 97.6 96;" xml:space="preserve">
<style type="text/css">
	.st0{fill:#FFFFFF;}
</style>
<path class="st0" d="M48.9,0C21.8,0,0,22,0,49.2C0,71,14,89.4,33.4,95.9c2.4,0.5,3.3-1.1,3.3-2.4c0-1.1-0.1-5.1-0.1-9.1
	c-13.6,2.9-16.4-5.9-16.4-5.9c-2.2-5.7-5.4-7.2-5.4-7.2c-4.4-3,0.3-3,0.3-3c4.9,0.3,7.5,5.1,7.5,5.1c4.4,7.5,11.4,5.4,14.2,4.1
	c0.4-3.2,1.7-5.4,3.1-6.6c-10.8-1.1-22.2-5.4-22.2-24.3c0-5.4,1.9-9.8,5-13.2c-0.5-1.2-2.2-6.3,0.5-13c0,0,4.1-1.3,13.4,5.1
	c3.9-1.1,8.1-1.6,12.2-1.6s8.3,0.6,12.2,1.6c9.3-6.4,13.4-5.1,13.4-5.1c2.7,6.8,1,11.8,0.5,13c3.2,3.4,5,7.8,5,13.2
	c0,18.9-11.4,23.1-22.3,24.3c1.8,1.5,3.3,4.5,3.3,9.1c0,6.6-0.1,11.9-0.1,13.5c0,1.3,0.9,2.9,3.3,2.4C83.6,89.4,97.6,71,97.6,49.2
	C97.7,22,75.8,0,48.9,0z"/>
</svg>

<svg width="98" height="96" viewBox="0 0 98 96" fill="none" xmlns="http://www.w3.org/2000/svg">
<g clip-path="url(#clip0_7_3)">
<path d="M48.9 0C21.8 0 0 22 0 49.2C0 71 14 89.4 33.4 95.9C35.8 96.4 36.7 94.8 36.7 93.5C36.7 92.4 36.6 88.4 36.6 84.4C23 87.3 20.2 78.5 20.2 78.5C18 72.8 14.8 71.3 14.8 71.3C10.4 68.3 15.1 68.3 15.1 68.3C20 68.6 22.6 73.4 22.6 73.4C27 80.9 34 78.8 36.8 77.5C37.2 74.3 38.5 72.1 39.9 70.9C29.1 69.8 17.7 65.5 17.7 46.6C17.7 41.2 19.6 36.8 22.7 33.4C22.2 32.2 20.5 27.1 23.2 20.4C23.2 20.4 27.3 19.1 36.6 25.5C40.5 24.4 44.7 23.9 48.8 23.9C52.9 23.9 57.1 24.5 61 25.5C70.3 19.1 74.4 20.4 74.4 20.4C77.1 27.2 75.4 32.2 74.9 33.4C78.1 36.8 79.9 41.2 79.9 46.6C79.9 65.5 68.5 69.7 57.6 70.9C59.4 72.4 60.9 75.4 60.9 80C60.9 86.6 60.8 91.9 60.8 93.5C60.8 94.8 61.7 96.4 64.1 95.9C83.6 89.4 97.6 71 97.6 49.2C97.7 22 75.8 0 48.9 0Z" fill="black"/>
</g>
<defs>
<clipPath id="clip0_7_3">
<rect width="97.6" height="96" fill="white"/>
</clipPath>
</defs>
</svg>
